contributed-vectors/lime.svg

<svg xmlns="http://www.w3.org/2000/svg" xml:space="preserve" style="fill-rule:evenodd;clip-rule:evenodd;stroke-linejoin:round;stroke-miterlimit:2" viewBox="0 0 192 192"><g transform="translate(-43.495 -43.495) scale(1.45307)"><circle cx="96" cy="96" r="60.562" style="fill:#98dc9a"/><circle cx="96" cy="96" r="60.562" style="fill:#fff" transform="matrix(.89817 0 0 .89817 9.775 9.775)"/><path d="M60.206 126.746a4.395 4.395 0 0 1 1.147-6.66c6.137-3.565 17.42-10.079 24.572-14.208a4.34 4.34 0 0 1 6.513 3.76v28.418a4.415 4.415 0 0 1-5.215 4.344c-10.723-2.04-20.173-7.695-27.017-15.654Zm39.356-17.108a4.34 4.34 0 0 1 6.513-3.76l24.581 14.191a4.418 4.418 0 0 1 1.153 6.69c-6.86 7.946-16.31 13.6-27.036 15.62a4.394 4.394 0 0 1-5.191-4.323c-.02-7.1-.02-20.15-.02-28.418Zm-17.198-17.45a4.343 4.343 0 0 1 0 7.521l-24.592 14.198a4.418 4.418 0 0 1-6.359-2.314A47.923 47.923 0 0 1 48.805 96c0-5.495.941-10.772 2.671-15.678a4.383 4.383 0 0 1 6.31-2.289c6.15 3.516 17.427 10.027 24.578 14.155Zm51.834-14.181a4.414 4.414 0 0 1 6.355 2.305A47.892 47.892 0 0 1 143.195 96c0 5.46-.929 10.704-2.637 15.583a4.386 4.386 0 0 1-6.314 2.298c-6.159-3.521-17.452-10.041-24.608-14.172a4.344 4.344 0 0 1 0-7.521l24.562-14.181ZM99.562 53.944a4.416 4.416 0 0 1 5.215-4.344c10.689 2.034 20.113 7.659 26.952 15.578a4.4 4.4 0 0 1-1.142 6.667c-6.128 3.56-17.376 10.054-24.512 14.174a4.34 4.34 0 0 1-6.513-3.76V53.944ZM87.227 49.62a4.398 4.398 0 0 1 5.191 4.324c.02 7.08.02 20.072.02 28.315a4.34 4.34 0 0 1-6.513 3.76L61.404 71.862a4.414 4.414 0 0 1-1.147-6.697c6.853-7.906 16.278-13.531 26.97-15.545Z" style="fill:#98dc9a"/><circle cx="96" cy="96" r="60.562" style="fill:#fff" transform="translate(83.547 83.547) scale(.12972)"/></g></svg>

<?xml version="1.0" encoding="UTF-8" standalone="no"?>
<!DOCTYPE svg PUBLIC "-//W3C//DTD SVG 1.1//EN" "http://www.w3.org/Graphics/SVG/1.1/DTD/svg11.dtd">
<svg width="100%" height="100%" viewBox="0 0 192 192" version="1.1" xmlns="http://www.w3.org/2000/svg" xmlns:xlink="http://www.w3.org/1999/xlink" xml:space="preserve" xmlns:serif="http://www.serif.com/" style="fill-rule:evenodd;clip-rule:evenodd;stroke-linejoin:round;stroke-miterlimit:2;">
    <g transform="matrix(1.45307,0,0,1.45307,-43.4945,-43.4945)">
        <g id="Layer1">
            <g>
                <circle cx="96" cy="96" r="60.562" style="fill:rgb(152,220,154);"/>
                <g transform="matrix(0.898175,0,0,0.898175,9.77518,9.77518)">
                    <circle cx="96" cy="96" r="60.562" style="fill:white;"/>
                </g>
                <path d="M60.206,126.746C59.359,125.753 58.997,124.434 59.219,123.147C59.44,121.86 60.223,120.739 61.353,120.086C67.49,116.521 78.773,110.007 85.925,105.878C87.269,105.102 88.924,105.102 90.267,105.878C91.611,106.653 92.438,108.087 92.438,109.638C92.438,117.906 92.438,130.956 92.438,138.056C92.439,139.367 91.856,140.611 90.849,141.45C89.841,142.289 88.513,142.637 87.223,142.4C76.5,140.36 67.05,134.705 60.206,126.746ZM99.562,109.638C99.562,108.087 100.389,106.653 101.733,105.878C103.076,105.102 104.731,105.102 106.075,105.878C113.227,110.007 124.51,116.521 130.656,120.069C131.791,120.725 132.577,121.852 132.8,123.144C133.023,124.436 132.659,125.761 131.809,126.759C124.949,134.705 115.499,140.359 104.773,142.379C103.489,142.616 102.167,142.269 101.164,141.434C100.162,140.599 99.582,139.361 99.582,138.056C99.562,130.956 99.562,117.906 99.562,109.638ZM82.364,92.188C83.707,92.964 84.535,94.397 84.535,95.948C84.535,97.5 83.707,98.933 82.364,99.709C75.208,103.84 63.915,110.36 57.772,113.907C56.641,114.56 55.28,114.679 54.053,114.233C52.826,113.786 51.86,112.82 51.413,111.593C49.734,106.704 48.805,101.46 48.805,96C48.805,90.505 49.746,85.228 51.476,80.322C51.921,79.107 52.881,78.15 54.098,77.709C55.315,77.267 56.665,77.386 57.786,78.033C63.936,81.549 75.213,88.06 82.364,92.188ZM134.198,78.007C135.327,77.355 136.687,77.235 137.912,77.68C139.138,78.124 140.105,79.088 140.553,80.312C142.254,85.228 143.195,90.505 143.195,96C143.195,101.46 142.266,106.704 140.558,111.583C140.114,112.801 139.155,113.761 137.936,114.204C136.718,114.647 135.366,114.529 134.244,113.881C128.085,110.36 116.792,103.84 109.636,99.709C108.293,98.933 107.465,97.5 107.465,95.948C107.465,94.397 108.293,92.964 109.636,92.188C116.787,88.06 128.064,81.549 134.198,78.007ZM99.562,53.944C99.561,52.633 100.144,51.389 101.152,50.55C102.159,49.711 103.487,49.363 104.777,49.6C115.466,51.634 124.89,57.259 131.729,65.178C132.579,66.171 132.943,67.491 132.723,68.779C132.502,70.068 131.719,71.192 130.587,71.845C124.459,75.405 113.211,81.899 106.075,86.019C104.731,86.795 103.076,86.795 101.733,86.019C100.389,85.244 99.562,83.81 99.562,82.259C99.562,74.016 99.562,61.024 99.562,53.944ZM87.227,49.62C88.511,49.384 89.833,49.731 90.836,50.566C91.838,51.401 92.418,52.639 92.418,53.944C92.438,61.024 92.438,74.016 92.438,82.259C92.438,83.81 91.611,85.244 90.267,86.019C88.924,86.795 87.269,86.795 85.925,86.019C78.789,81.899 67.541,75.405 61.404,71.862C60.266,71.205 59.48,70.077 59.259,68.782C59.037,67.488 59.403,66.163 60.257,65.165C67.11,57.259 76.535,51.634 87.227,49.62Z" style="fill:rgb(152,220,154);"/>
                <g transform="matrix(0.129721,0,0,0.129721,83.5468,83.5468)">
                    <circle cx="96" cy="96" r="60.562" style="fill:white;"/>
                </g>
            </g>
        </g>
    </g>
</svg>
